app/assets/images/gatherings.svg

<svg width="25" height="22" viewBox="0 0 25 22" fill="none" xmlns="http://www.w3.org/2000/svg">
<path d="M7.29165 8.98438V12.8906C7.29165 13.5378 6.76699 14.0625 6.11978 14.0625H1.17188C0.524658 14.0625 0 13.5378 0 12.8906V8.98438C0 8.33716 0.524658 7.8125 1.17188 7.8125H6.11978C6.76699 7.8125 7.29165 8.33716 7.29165 8.98438ZM0 16.7969V20.7031C0 21.3503 0.524658 21.875 1.17188 21.875H6.11978C6.76699 21.875 7.29165 21.3503 7.29165 20.7031V16.7969C7.29165 16.1497 6.76699 15.625 6.11978 15.625H1.17188C0.524658 15.625 0 16.1497 0 16.7969ZM6.11978 0H1.17188C0.524658 0 0 0.524658 0 1.17188V5.07812C0 5.72534 0.524658 6.25 1.17188 6.25H6.11978C6.76699 6.25 7.29165 5.72534 7.29165 5.07812V1.17188C7.29165 0.524658 6.76699 0 6.11978 0ZM10.026 21.875H23.8281C24.4753 21.875 25 21.3503 25 20.7031V16.7969C25 16.1497 24.4753 15.625 23.8281 15.625H10.026C9.37881 15.625 8.85415 16.1497 8.85415 16.7969V20.7031C8.85415 21.3503 9.37881 21.875 10.026 21.875ZM8.85415 1.17188V5.07812C8.85415 5.72534 9.37881 6.25 10.026 6.25H23.8281C24.4753 6.25 25 5.72534 25 5.07812V1.17188C25 0.524658 24.4753 0 23.8281 0H10.026C9.37881 0 8.85415 0.524658 8.85415 1.17188ZM10.026 14.0625H23.8281C24.4753 14.0625 25 13.5378 25 12.8906V8.98438C25 8.33716 24.4753 7.8125 23.8281 7.8125H10.026C9.37881 7.8125 8.85415 8.33716 8.85415 8.98438V12.8906C8.85415 13.5378 9.37881 14.0625 10.026 14.0625Z" fill="white"/>
</svg>

<svg width="25" height="22" fill="none" xmlns="http://www.w3.org/2000/svg"><path d="M7.292 8.984v3.907c0 .647-.525 1.171-1.172 1.171H1.172A1.172 1.172 0 010 12.892V8.984c0-.647.525-1.171 1.172-1.171H6.12c.647 0 1.172.524 1.172 1.171zM0 16.797v3.906c0 .647.525 1.172 1.172 1.172H6.12c.647 0 1.172-.525 1.172-1.172v-3.906c0-.647-.525-1.172-1.172-1.172H1.172C.525 15.625 0 16.15 0 16.797zM6.12 0H1.172C.525 0 0 .525 0 1.172v3.906C0 5.725.525 6.25 1.172 6.25H6.12c.647 0 1.172-.525 1.172-1.172V1.172C7.292.525 6.767 0 6.12 0zm3.906 21.875h13.802c.647 0 1.172-.525 1.172-1.172v-3.906c0-.647-.525-1.172-1.172-1.172H10.026c-.647 0-1.172.525-1.172 1.172v3.906c0 .647.525 1.172 1.172 1.172zM8.854 1.172v3.906c0 .647.525 1.172 1.172 1.172h13.802c.647 0 1.172-.525 1.172-1.172V1.172C25 .525 24.475 0 23.828 0H10.026c-.647 0-1.172.525-1.172 1.172zm1.172 12.89h13.802c.647 0 1.172-.524 1.172-1.171V8.984c0-.647-.525-1.171-1.172-1.171H10.026c-.647 0-1.172.524-1.172 1.171v3.907c0 .647.525 1.171 1.172 1.171z" fill="#fff"/></svg>
